X:1
T: Scotch Jemmy
N:
C:
S:
A:
O:
R:
M:4/4
K:G
I:speed 200
%W: A1
% voice 1 (1 lines, 31 notes)
K:G
M:4/4
L:1/16
d2 c2 |B8 d8 |g6 f2 e4 d4 |c4 B4 A4 G4 |E12 G4 |D4 B4 G4 c4 |A4 d4 B2 g2 f2 g2 |B6 c2 A6 G2 |G12 d2 c2 |
%W: A2
% voice 1 (1 lines, 29 notes)
B8 d8 |g6 f2 e4 d4 |c4 B4 A4 G4 |E12 G4 |D4 B4 G4 c4 |A4 d4 B2 g2 f2 g2 |B6 c2 A6 G2 |G12 d2 c2 |
%W: B1
% voice 1 (1 lines, 27 notes)
B8 d8 |g12 f4 |e8 a4 g4 |f12 g2 f2 |e4 d4 ^c4 d4 |A4 d4 e2 f2 e2 f2 |g4 f4 e6 d2 |d12 e2 f2 |
%W:
% voice 1 (1 lines, 35 notes)
g4 d4 e4 B4 |c4 e4 d2 c2 d2 B2 |c4 E4 E2 F2 G4 |F12 E2 F2 |D4 G4 F4 B4 |A4 d4 G2 F2 G2 A2 |B6 c2 A6 G2 |G12 d2 c2 |
%W: B2
% voice 1 (1 lines, 27 notes)
B8 d8 |g12 f4 |e8 a4 g4 |f12 g2 f2 |e4 d4 ^c4 d4 |A4 d4 e2 f2 e2 f2 |g4 f4 e6 d2 |d12 e2 f2 |
%W:
% voice 1 (1 lines, 33 notes)
g4 d4 e4 B4 |c4 e4 d2 c2 d2 B2 |c4 E4 E2 F2 G4 |F12 E2 F2 |D4 G4 F4 B4 |A4 d4 G2 F2 G2 A2 |B6 c2 A6 G2 |G12 ||
